public/logos/logo-c360.svg

<svg width="95" height="120" viewBox="0 0 95 120" fill="none" xmlns="http://www.w3.org/2000/svg">
<path fill-rule="evenodd" clip-rule="evenodd" d="M69.6337 44.7779H94.2706C93.0274 19.8385 72.4129 0 47.165 0C21.1165 0 0 21.1165 0 47.165C0 73.2134 21.1165 94.3299 47.165 94.3299C72.2341 94.3299 92.7351 74.7714 94.2412 50.0812H69.694C69.4593 51.9351 68.9613 53.6622 68.3493 55.2677C66.7148 59.556 63.7639 62.8607 60.97 65.9897C60.7557 66.2297 60.5423 66.4687 60.3305 66.707C57.2381 70.1852 54.5908 73.9627 52.4286 78.2643L52.3934 78.3345C51.3054 80.4966 50.2295 82.6348 49.4796 85.0461C48.9043 86.8983 48.3987 88.8227 47.8959 90.7362L47.8882 90.7657C47.8406 90.9457 47.8098 91.1353 47.7786 91.3268C47.7027 91.7935 47.6248 92.272 47.2986 92.6526C46.9007 91.9261 46.7479 91.1328 46.5969 90.3485C46.5399 90.0525 46.4832 89.7578 46.4136 89.4685C46.1547 88.3949 45.809 87.3164 45.4708 86.2843C45.3842 86.0199 45.2986 85.7556 45.2131 85.492C44.6253 83.6783 44.0472 81.8948 43.2295 80.2693C42.298 78.4139 41.3452 76.6214 40.3408 74.903C39.3201 73.1569 38.2352 71.5353 37.0976 69.8911C35.813 68.0353 34.2452 66.4091 32.668 64.7732C31.5413 63.6045 30.4096 62.4307 29.373 61.1646C27.5 58.8755 26.1348 56.0471 25.3051 52.8504C24.6482 49.9747 24.5084 48.365 24.478 45.4803C24.7476 44.7209 24.8593 43.9542 24.9678 43.2094C25.0551 42.6104 25.1403 42.0256 25.3039 41.4703C26.4239 37.6727 28.2605 34.7136 30.6703 32.2121C33.7966 28.9664 37.9449 26.2825 43.2886 25.3724C49.5626 24.3052 55.1577 26.2851 59.091 28.5566C61.1551 29.747 62.8685 31.2291 64.3983 32.9789C67.0657 36.029 69.0068 39.8457 69.6337 44.7779Z" fill="#E8F5FF"/>
<ellipse cx="47.1652" cy="47.1652" rx="13.7316" ry="13.7316" fill="#E8F5FF"/>
<path d="M14.8878 108.909C14.04 107.875 12.9928 107.357 11.746 107.357C11.1974 107.357 10.6863 107.457 10.2125 107.656C9.75119 107.856 9.35223 108.13 9.01561 108.479C8.67899 108.816 8.41093 109.221 8.21145 109.695C8.02444 110.169 7.93093 110.68 7.93093 111.228C7.93093 111.789 8.02444 112.307 8.21145 112.78C8.41093 113.254 8.67899 113.666 9.01561 114.015C9.3647 114.364 9.7699 114.638 10.2312 114.838C10.6925 115.037 11.1912 115.137 11.7273 115.137C12.8992 115.137 13.9528 114.638 14.8878 113.641V117.979L14.5138 118.11C13.9528 118.31 13.4291 118.453 12.9429 118.54C12.4566 118.64 11.9766 118.69 11.5029 118.69C10.5304 118.69 9.59535 118.509 8.69769 118.148C7.81249 117.774 7.02704 117.256 6.34132 116.596C5.66808 115.922 5.12574 115.131 4.71431 114.22C4.30288 113.298 4.09717 112.294 4.09717 111.21C4.09717 110.125 4.29665 109.134 4.69561 108.236C5.10704 107.326 5.64938 106.547 6.32262 105.898C7.00834 105.238 7.80003 104.726 8.69769 104.365C9.59535 103.991 10.5366 103.804 11.5216 103.804C12.0826 103.804 12.6312 103.866 13.1673 103.991C13.7159 104.103 14.2894 104.284 14.8878 104.533V108.909Z" fill="#E8F5FF"/>
<path d="M22.5365 109.695C22.6362 109.707 22.7173 109.713 22.7796 109.713C22.8544 109.713 22.9168 109.713 22.9666 109.713C23.4279 109.713 23.802 109.576 24.0887 109.302C24.3755 109.028 24.5188 108.672 24.5188 108.236C24.5188 107.812 24.3817 107.469 24.1074 107.207C23.8456 106.946 23.5027 106.815 23.0788 106.815C22.63 106.815 22.2685 106.964 21.9942 107.264C21.7199 107.563 21.5827 107.949 21.5827 108.423H18.1978C18.2851 107.687 18.4659 107.033 18.7401 106.459C19.0269 105.886 19.3885 105.406 19.8248 105.019C20.2612 104.62 20.7723 104.321 21.3583 104.122C21.9443 103.91 22.5926 103.804 23.3033 103.804C24.0014 103.804 24.631 103.904 25.1921 104.103C25.7656 104.29 26.2518 104.564 26.6508 104.926C27.0622 105.275 27.3739 105.705 27.5859 106.216C27.8103 106.715 27.9225 107.276 27.9225 107.899C27.9225 108.573 27.7916 109.127 27.5298 109.564C27.2804 109.988 26.9188 110.356 26.4451 110.667C27.1682 110.892 27.7292 111.297 28.1282 111.883C28.5396 112.456 28.7453 113.167 28.7453 114.015C28.7453 114.713 28.6082 115.349 28.3339 115.922C28.0596 116.496 27.6731 116.988 27.1744 117.4C26.6882 117.811 26.1022 118.129 25.4165 118.353C24.7433 118.578 24.0014 118.69 23.191 118.69C22.1064 118.69 21.1277 118.478 20.2549 118.054C19.3822 117.63 18.684 116.957 18.1604 116.035C17.9235 115.623 17.7614 115.212 17.6742 114.8C17.5994 114.389 17.562 113.971 17.562 113.547H21.19C21.2149 114.208 21.4082 114.713 21.7698 115.062C22.1313 115.399 22.6175 115.567 23.2285 115.567C23.8768 115.567 24.3505 115.392 24.6497 115.043C24.949 114.694 25.0986 114.264 25.0986 113.753C25.0986 113.142 24.9178 112.681 24.5562 112.369C24.1947 112.057 23.7646 111.902 23.2659 111.902C23.1412 111.902 23.0227 111.914 22.9105 111.939C22.7983 111.951 22.6736 111.97 22.5365 111.995V109.695Z" fill="#E8F5FF"/>
<path d="M40.9514 104.197L36.9494 108.797H37.0242C37.3733 108.585 37.66 108.46 37.8844 108.423C38.1088 108.373 38.3083 108.348 38.4829 108.348C39.1686 108.348 39.7982 108.479 40.3717 108.741C40.9452 109.003 41.4439 109.364 41.8678 109.826C42.2917 110.275 42.6221 110.804 42.859 111.415C43.0959 112.026 43.2143 112.681 43.2143 113.379C43.2143 114.127 43.0772 114.825 42.8029 115.473C42.5286 116.109 42.1296 116.67 41.606 117.157C41.0948 117.63 40.4714 118.004 39.7359 118.279C39.0003 118.553 38.1712 118.69 37.2486 118.69C36.3135 118.69 35.4782 118.553 34.7426 118.279C34.007 118.004 33.3774 117.63 32.8538 117.157C32.3426 116.683 31.9499 116.134 31.6756 115.511C31.4013 114.875 31.2642 114.202 31.2642 113.491C31.2642 112.693 31.4387 111.833 31.7878 110.91C32.1494 109.975 32.6979 109.059 33.4335 108.161L36.7062 104.197H40.9514ZM34.8922 113.454C34.8922 113.778 34.9546 114.083 35.0792 114.37C35.2039 114.644 35.3722 114.887 35.5842 115.099C35.7961 115.311 36.0392 115.48 36.3135 115.604C36.6003 115.729 36.9057 115.791 37.2299 115.791C37.554 115.791 37.8533 115.729 38.1275 115.604C38.4143 115.48 38.6636 115.311 38.8756 115.099C39.0875 114.887 39.2559 114.644 39.3805 114.37C39.5052 114.083 39.5675 113.778 39.5675 113.454C39.5675 113.13 39.5052 112.83 39.3805 112.556C39.2559 112.269 39.0875 112.02 38.8756 111.808C38.6636 111.596 38.4143 111.428 38.1275 111.303C37.8533 111.178 37.554 111.116 37.2299 111.116C36.9057 111.116 36.6003 111.178 36.3135 111.303C36.0392 111.428 35.7961 111.596 35.5842 111.808C35.3722 112.02 35.2039 112.269 35.0792 112.556C34.9546 112.83 34.8922 113.13 34.8922 113.454Z" fill="#E8F5FF"/>
<path d="M48.8001 111.228C48.8001 111.852 48.8562 112.419 48.9685 112.93C49.0807 113.441 49.2365 113.884 49.436 114.258C49.6479 114.632 49.8973 114.925 50.184 115.137C50.4708 115.336 50.7949 115.436 51.1565 115.436C51.5056 115.436 51.8235 115.336 52.1103 115.137C52.4095 114.925 52.6588 114.632 52.8583 114.258C53.0578 113.884 53.2136 113.441 53.3259 112.93C53.4381 112.419 53.4942 111.852 53.4942 111.228C53.4942 110.617 53.4381 110.056 53.3259 109.545C53.2136 109.022 53.0578 108.579 52.8583 108.217C52.6588 107.843 52.4095 107.557 52.1103 107.357C51.8235 107.145 51.5056 107.039 51.1565 107.039C50.7949 107.039 50.4708 107.145 50.184 107.357C49.8973 107.557 49.6479 107.843 49.436 108.217C49.2365 108.579 49.0807 109.022 48.9685 109.545C48.8562 110.056 48.8001 110.617 48.8001 111.228ZM45.1721 111.228C45.1721 110.106 45.3155 109.09 45.6022 108.18C45.9014 107.257 46.3129 106.472 46.8365 105.824C47.3726 105.175 48.0022 104.677 48.7253 104.327C49.4609 103.966 50.2713 103.785 51.1565 103.785C52.0292 103.785 52.8334 103.966 53.569 104.327C54.3046 104.677 54.9342 105.175 55.4578 105.824C55.9814 106.472 56.3866 107.257 56.6734 108.18C56.9726 109.09 57.1222 110.106 57.1222 111.228C57.1222 112.35 56.9726 113.373 56.6734 114.295C56.3866 115.205 55.9814 115.991 55.4578 116.652C54.9342 117.3 54.3046 117.805 53.569 118.166C52.8334 118.516 52.0292 118.69 51.1565 118.69C50.2713 118.69 49.4609 118.516 48.7253 118.166C48.0022 117.805 47.3726 117.3 46.8365 116.652C46.3129 115.991 45.9014 115.205 45.6022 114.295C45.3155 113.373 45.1721 112.35 45.1721 111.228Z" fill="#E8F5FF"/>
<path d="M63.8675 109.639H69.16V104.197H72.8255V118.297H69.16V112.481H63.8675V118.297H60.2021V104.197H63.8675V109.639Z" fill="#E8F5FF"/>
<path d="M80.6615 115.193H81.503C82.1389 115.193 82.7061 115.093 83.2048 114.894C83.7035 114.694 84.1212 114.42 84.4578 114.071C84.8069 113.722 85.0687 113.31 85.2433 112.837C85.4303 112.35 85.5238 111.82 85.5238 111.247C85.5238 110.686 85.4303 110.162 85.2433 109.676C85.0563 109.19 84.7882 108.772 84.4391 108.423C84.1025 108.074 83.6848 107.8 83.1861 107.6C82.6874 107.401 82.1264 107.301 81.503 107.301H80.6615V115.193ZM76.996 104.197H82.4194C83.3794 104.197 84.277 104.39 85.1124 104.776C85.9602 105.163 86.6957 105.68 87.3191 106.329C87.955 106.964 88.4537 107.712 88.8152 108.573C89.1768 109.42 89.3576 110.312 89.3576 111.247C89.3576 112.17 89.1768 113.061 88.8152 113.921C88.4661 114.769 87.9737 115.517 87.3378 116.165C86.7144 116.814 85.9789 117.331 85.1311 117.718C84.2957 118.104 83.3918 118.297 82.4194 118.297H76.996V104.197Z" fill="#E8F5FF"/>
</svg>

<svg viewBox="0 0 95 120" fill="none" xmlns="http://www.w3.org/2000/svg"><path fill-rule="evenodd" clip-rule="evenodd" d="M69.634 44.778H94.27C93.027 19.838 72.413 0 47.165 0 21.116 0 0 21.116 0 47.165 0 73.213 21.116 94.33 47.165 94.33c25.07 0 45.57-19.559 47.076-44.249H69.694c-.235 1.854-.733 3.581-1.345 5.187-1.634 4.288-4.585 7.593-7.379 10.722l-.64.717c-3.092 3.478-5.74 7.256-7.901 11.557l-.036.07c-1.088 2.163-2.163 4.3-2.913 6.712-.576 1.852-1.081 3.777-1.584 5.69l-.008.03c-.047.18-.078.37-.11.56-.075.468-.153.946-.48 1.327-.397-.727-.55-1.52-.701-2.305-.057-.296-.114-.59-.183-.88-.26-1.073-.605-2.152-.943-3.184l-.258-.792c-.588-1.814-1.166-3.597-1.983-5.223a95.892 95.892 0 0 0-2.89-5.366c-1.02-1.746-2.105-3.368-3.242-5.012-1.285-1.856-2.853-3.482-4.43-5.118-1.127-1.168-2.258-2.342-3.295-3.608-1.873-2.29-3.238-5.118-4.068-8.315-.657-2.875-.797-4.485-.827-7.37.27-.76.381-1.526.49-2.27.087-.6.172-1.184.336-1.74 1.12-3.797 2.957-6.756 5.366-9.258 3.127-3.246 7.275-5.93 12.619-6.84 6.274-1.067 11.869.913 15.802 3.185 2.064 1.19 3.777 2.672 5.307 4.422 2.668 3.05 4.609 6.867 5.236 11.799z" fill="#E8F5FF"/><circle cx="47.165" cy="47.165" fill="#E8F5FF" r="13.732"/><path d="M14.888 108.909c-.848-1.034-1.895-1.552-3.142-1.552-.549 0-1.06.1-1.534.299-.46.2-.86.474-1.196.823a3.764 3.764 0 0 0-.805 1.216 4.14 4.14 0 0 0-.28 1.533c0 .561.093 1.079.28 1.552.2.474.468.886.805 1.235.349.349.754.623 1.215.823.462.199.96.299 1.496.299 1.172 0 2.226-.499 3.16-1.496v4.338l-.373.131c-.561.2-1.085.343-1.571.43-.486.1-.966.15-1.44.15a7.45 7.45 0 0 1-2.805-.542 7.678 7.678 0 0 1-2.357-1.552 7.964 7.964 0 0 1-1.627-2.376c-.411-.922-.617-1.926-.617-3.01 0-1.085.2-2.076.599-2.974a7.496 7.496 0 0 1 1.627-2.338 7.343 7.343 0 0 1 2.375-1.533 7.27 7.27 0 0 1 2.824-.561c.56 0 1.11.062 1.645.187a9.383 9.383 0 0 1 1.72.542v4.376zM22.537 109.695c.1.012.18.018.243.018h.187c.46 0 .835-.137 1.122-.411.287-.274.43-.63.43-1.066 0-.424-.137-.767-.412-1.029-.261-.261-.604-.392-1.028-.392-.449 0-.81.149-1.085.449-.274.299-.411.685-.411 1.159h-3.385c.087-.736.268-1.39.542-1.964a4.724 4.724 0 0 1 1.085-1.44 4.285 4.285 0 0 1 1.533-.897 5.682 5.682 0 0 1 1.945-.318c.698 0 1.328.1 1.89.299.573.187 1.059.461 1.458.823.411.349.723.779.935 1.29.224.499.337 1.06.337 1.683 0 .674-.131 1.228-.393 1.665-.25.424-.611.792-1.085 1.103.723.225 1.284.63 1.683 1.216.412.573.617 1.284.617 2.132a4.36 4.36 0 0 1-.411 1.907 4.305 4.305 0 0 1-1.16 1.478 5.18 5.18 0 0 1-1.758.953 6.987 6.987 0 0 1-2.225.337c-1.085 0-2.063-.212-2.936-.636-.873-.424-1.571-1.097-2.095-2.019a4.238 4.238 0 0 1-.486-1.235 6.986 6.986 0 0 1-.112-1.253h3.628c.025.661.218 1.166.58 1.515.361.337.848.505 1.459.505.648 0 1.122-.175 1.42-.524.3-.349.45-.779.45-1.29 0-.611-.181-1.072-.543-1.384a1.91 1.91 0 0 0-1.29-.467c-.125 0-.243.012-.355.037a5.186 5.186 0 0 0-.375.056v-2.3zM40.951 104.197l-4.002 4.6h.075c.35-.212.636-.337.86-.374.225-.05.424-.075.599-.075a4.491 4.491 0 0 1 3.385 1.478c.424.449.754.978.991 1.589s.355 1.266.355 1.964c0 .748-.137 1.446-.411 2.094a4.968 4.968 0 0 1-1.197 1.684c-.511.473-1.135.847-1.87 1.122-.736.274-1.565.411-2.487.411-.936 0-1.77-.137-2.506-.411a5.825 5.825 0 0 1-1.89-1.122 4.941 4.941 0 0 1-1.177-1.646 5.045 5.045 0 0 1-.412-2.02c0-.798.175-1.658.524-2.581.361-.935.91-1.851 1.646-2.749l3.272-3.964h4.245zm-6.059 9.257c0 .324.063.629.187.916a2.469 2.469 0 0 0 1.234 1.234c.287.125.593.187.917.187.324 0 .623-.062.898-.187.286-.124.536-.293.748-.505.212-.212.38-.455.505-.729.124-.287.187-.592.187-.916 0-.324-.063-.624-.188-.898a2.396 2.396 0 0 0-.504-.748 2.404 2.404 0 0 0-.748-.505 2.138 2.138 0 0 0-.898-.187c-.324 0-.63.062-.916.187a2.47 2.47 0 0 0-.73.505c-.212.212-.38.461-.505.748a2.146 2.146 0 0 0-.187.898zM48.8 111.228c0 .624.056 1.191.169 1.702.112.511.267.954.467 1.328.212.374.461.667.748.879.287.199.61.299.973.299.349 0 .667-.1.953-.299.3-.212.549-.505.748-.879.2-.374.356-.817.468-1.328a7.95 7.95 0 0 0 .168-1.702c0-.611-.056-1.172-.168-1.683-.112-.523-.268-.966-.468-1.328-.2-.374-.448-.66-.748-.86a1.567 1.567 0 0 0-.953-.318c-.362 0-.686.106-.973.318-.287.2-.536.486-.748.86-.2.362-.355.805-.468 1.328a7.847 7.847 0 0 0-.168 1.683zm-3.628 0c0-1.122.144-2.138.43-3.048.3-.923.71-1.708 1.235-2.356a5.59 5.59 0 0 1 1.888-1.497 5.443 5.443 0 0 1 2.431-.542c.873 0 1.677.181 2.413.542.736.35 1.365.848 1.889 1.497.523.648.929 1.433 1.215 2.356.3.91.45 1.926.45 3.048s-.15 2.145-.45 3.067c-.286.91-.692 1.696-1.215 2.357a5.545 5.545 0 0 1-1.889 1.514c-.736.35-1.54.524-2.413.524-.885 0-1.695-.174-2.43-.524a5.793 5.793 0 0 1-1.89-1.514c-.523-.661-.935-1.447-1.234-2.357-.286-.922-.43-1.945-.43-3.067zM63.867 109.639h5.293v-5.442h3.666v14.1H69.16v-5.816h-5.292v5.816h-3.666v-14.1h3.666v5.442zM80.662 115.193h.841c.636 0 1.203-.1 1.702-.299.499-.2.916-.474 1.253-.823.349-.349.61-.761.785-1.234a4.4 4.4 0 0 0 .28-1.59c0-.561-.093-1.085-.28-1.571a3.55 3.55 0 0 0-.804-1.253 3.546 3.546 0 0 0-1.253-.823 4.508 4.508 0 0 0-1.683-.299h-.841v7.892zm-3.666-10.996h5.423c.96 0 1.858.193 2.693.579a7.132 7.132 0 0 1 2.207 1.553 6.921 6.921 0 0 1 1.496 2.244c.362.847.543 1.739.543 2.674 0 .923-.181 1.814-.543 2.674a6.95 6.95 0 0 1-1.477 2.244 7.132 7.132 0 0 1-2.207 1.553 6.386 6.386 0 0 1-2.712.579h-5.423v-14.1z" fill="#E8F5FF"/></svg>
